; generated by PrusaSlicer 2.7.4+win64 on 2024-05-22 at 09:15:50 UTC

; 

; external perimeters extrusion width = 0.45mm
; perimeters extrusion width = 0.45mm
; infill extrusion width = 0.45mm
; solid infill extrusion width = 0.45mm
; top infill extrusion width = 0.40mm
; support material extrusion width = 0.40mm
; first layer extrusion width = 0.70mm

; external perimeters extrusion width = 0.45mm
; perimeters extrusion width = 0.45mm
; infill extrusion width = 0.45mm
; solid infill extrusion width = 0.45mm
; top infill extrusion width = 0.40mm
; support material extrusion width = 0.40mm
; first layer extrusion width = 0.70mm

; external perimeters extrusion width = 0.45mm
; perimeters extrusion width = 0.45mm
; infill extrusion width = 0.45mm
; solid infill extrusion width = 0.45mm
; top infill extrusion width = 0.40mm
; support material extrusion width = 0.40mm
; first layer extrusion width = 0.70mm

; external perimeters extrusion width = 0.45mm
; perimeters extrusion width = 0.45mm
; infill extrusion width = 0.45mm
; solid infill extrusion width = 0.45mm
; top infill extrusion width = 0.40mm
; support material extrusion width = 0.40mm
; first layer extrusion width = 0.70mm

M104 S200 ; set temperature
;TYPE:Custom
G28 ; home all axes
G1 Z5 F5000 ; lift nozzle
M109 S200 ; set temperature and wait for it to be reached
G21 ; set units to millimeters
G90 ; use absolute coordinates
M82 ; use absolute distances for extrusion
G92 E0
; Filament gcode
M107
;LAYER_CHANGE
;Z:0.35
;HEIGHT:0.35
G1 E-2 F2400
G1 Z.35 F7800
G1 X13.804 Y20.888
G1 E0 F2400
;TYPE:Skirt/Brim
;WIDTH:0.7
G1 F1800
G1 X15.731 Y19.645 E.20851
G1 X18.305 Y19.124 E.44731
G1 X129.844 Y19.124 E10.5895
G1 X132.102 Y19.521 E10.79797
G1 X134.832 Y21.389 E11.09876
G1 X170.947 Y62.712 E16.08903
G1 X172.15 Y64.715 E16.30149
G1 X173.683 Y68.754 E16.69432
G1 X173.946 Y69.729 E16.78615
G1 X176.278 Y91.731 E18.79799
G1 X176.291 Y95.396 E19.13125
G1 X176.142 Y96.722 E19.25258
G1 X175.799 Y97.912 E19.36519
G1 X174.024 Y102.444 E19.80776
G1 X140.763 Y165.844 E26.31787
G1 X139.362 Y167.66 E26.52643
G1 X137.426 Y168.889 E26.73495
G1 X134.897 Y169.391 E26.9694
G1 X10.165 Y169.391 E38.31123
G1 X7.906 Y168.994 E38.51979
G1 X5.918 Y167.851 E38.72831
G1 X4.439 Y166.098 E38.93686
G1 X3.646 Y163.946 E39.1454
G1 X3.54 Y162.766 E39.25313
G1 X3.54 Y89.076 E45.95373
G1 X3.594 Y88.232 E46.03063
G1 X11.734 Y24.904 E51.83639
G1 X12.416 Y22.714 E52.04496
G1 X13.767 Y20.936 E52.24801
G1 E50.24801 F2400
G92 E0
G1 X13.767 Y20.936 F7800
G92 E0
G1 X16.187 Y155.448
G1 E2 F2400
;TYPE:Support material
G1 F1800
G1 X16.187 Y156.436 E2.08984
G1 X16.524 Y156.773 E2.13318
G1 X27.143 Y156.773 E3.09876
G1 X27.143 Y162.766 E3.6437
G1 X10.165 Y162.766 E5.1875
G1 X10.165 Y145.789 E6.73121
G1 X16.187 Y145.789 E7.27879
G1 X16.187 Y155.355 E8.14862
G1 E6.14862 F2400
G92 E0
G1 X16.187 Y155.355 F7800
G1 X26.011 Y162.485
G1 E2 F2400
G1 F1800
G1 X26.011 Y157.336 E2.4682
G1 X25.317 Y157.336 E2.53131
G1 X25.317 Y162.204 E2.97396
G1 X24.623 Y162.204 E3.03707
G1 X24.623 Y157.336 E3.47972
G1 X23.928 Y157.336 E3.54292
G1 X23.928 Y162.204 E3.98557
G1 X23.234 Y162.204 E4.04868
G1 X23.234 Y157.336 E4.49133
G1 X22.54 Y157.336 E4.55444
G1 X22.54 Y162.204 E4.99709
G1 X21.845 Y162.204 E5.06029
G1 X21.845 Y157.336 E5.50294
G1 X21.151 Y157.336 E5.56605
G1 X21.151 Y162.204 E6.0087
G1 X20.457 Y162.204 E6.07181
G1 X20.457 Y157.336 E6.51446
G1 X19.762 Y157.336 E6.57766
G1 X19.762 Y162.204 E7.02031
G1 X19.068 Y162.204 E7.08342
G1 X19.068 Y157.336 E7.52607
G1 X18.374 Y157.336 E7.58918
G1 X18.374 Y162.204 E8.03183
G1 X17.679 Y162.204 E8.09503
G1 X17.679 Y157.336 E8.53768
G1 X16.985 Y157.336 E8.60079
G1 X16.985 Y162.204 E9.04344
G1 X16.291 Y162.204 E9.10655
G1 X16.291 Y157.336 E9.5492
G1 X15.624 Y156.669 E9.63497
G1 X15.624 Y146.351 E10.57318
G1 X15.597 Y162.204 E12.01469
G1 X14.902 Y162.204 E12.07789
G1 X14.902 Y146.351 E13.5194
G1 X14.208 Y146.351 E13.58251
G1 X14.208 Y162.204 E15.02402
G1 X13.514 Y162.204 E15.08713
G1 X13.514 Y146.351 E16.52864
G1 X12.819 Y146.351 E16.59184
G1 X12.819 Y162.204 E18.03335
G1 X12.125 Y162.204 E18.09646
G1 X12.125 Y146.351 E19.53797
G1 X11.431 Y146.351 E19.60108
G1 X11.431 Y162.204 E21.04259
G1 X10.736 Y162.204 E21.10579
G1 X10.736 Y146.07 E22.57285
G1 E20.57285 F2400
G92 E0
G1 X10.736 Y146.07 F7800
G1 X27.143 Y95.07
G1 E2 F2400
G1 F1800
G1 X16.524 Y95.07 E2.96558
G1 X16.187 Y95.406 E3.00885
G1 X16.187 Y106.054 E3.97707
G1 X10.165 Y106.054 E4.52465
G1 X10.165 Y89.076 E6.06845
G1 X27.143 Y89.076 E7.61225
G1 X27.143 Y94.976 E8.14873
G1 X27.143 Y94.976 F7800
G1 X26.011 Y94.788
G1 F1800
G1 X26.011 Y89.639 E8.61693
G1 X25.317 Y89.639 E8.68004
G1 X25.317 Y94.507 E9.12269
G1 X24.623 Y94.507 E9.1858
G1 X24.623 Y89.639 E9.62845
G1 X23.928 Y89.639 E9.69165
G1 X23.928 Y94.507 E10.1343
G1 X23.234 Y94.507 E10.19741
G1 X23.234 Y89.639 E10.64006
G1 X22.54 Y89.639 E10.70317
G1 X22.54 Y94.507 E11.14582
G1 X21.845 Y94.507 E11.20902
G1 X21.845 Y89.639 E11.65167
G1 X21.151 Y89.639 E11.71478
G1 X21.151 Y94.507 E12.15743
G1 X20.457 Y94.507 E12.22054
G1 X20.457 Y89.639 E12.66319
G1 X19.762 Y89.639 E12.72639
G1 X19.762 Y94.507 E13.16904
G1 X19.068 Y94.507 E13.23215
G1 X19.068 Y89.639 E13.6748
G1 X18.374 Y89.639 E13.73791
G1 X18.374 Y94.507 E14.18056
G1 X17.679 Y94.507 E14.24376
G1 X17.679 Y89.639 E14.68641
G1 X16.985 Y89.639 E14.74952
G1 X16.985 Y94.507 E15.19217
G1 X16.291 Y94.507 E15.25528
G1 X16.291 Y89.639 E15.69793
G1 X15.597 Y89.639 E15.76104
G1 X15.597 Y105.492 E17.20255
G1 X14.902 Y105.492 E17.26575
G1 X14.902 Y89.639 E18.70726
G1 X14.208 Y89.639 E18.77037
G1 X14.208 Y105.492 E20.21188
G1 X13.514 Y105.492 E20.27499
G1 X13.514 Y89.639 E21.7165
G1 X12.819 Y89.639 E21.7797
G1 X12.819 Y105.492 E23.22121
G1 X12.125 Y105.492 E23.28432
G1 X12.125 Y89.639 E24.72583
G1 X11.431 Y89.639 E24.78894
G1 X11.431 Y105.492 E26.23045
G1 X10.736 Y105.492 E26.29365
G1 X10.736 Y89.357 E27.7608
G1 E25.7608 F2400
G92 E0
G1 X10.736 Y89.357 F7800
G1 X134.897 Y106.054
G1 E2 F2400
G1 F1800
G1 X128.875 Y106.054 E2.54758
G1 X128.875 Y95.406 E3.5158
G1 X128.538 Y95.07 E3.55907
G1 X117.919 Y95.07 E4.52465
G1 X117.919 Y89.076 E5.06968
G1 X134.897 Y89.076 E6.61348
G1 X134.897 Y105.96 E8.14874
G1 X134.897 Y105.96 F7800
G1 X134.325 Y105.773
G1 F1800
G1 X134.325 Y89.639 E9.6158
G1 X133.631 Y89.639 E9.67891
G1 X133.631 Y105.492 E11.12042
G1 X132.937 Y105.492 E11.18353
G1 X132.937 Y89.639 E12.62504
G1 X132.242 Y89.639 E12.68824
G1 X132.242 Y105.492 E14.12975
G1 X131.548 Y105.492 E14.19286
G1 X131.548 Y89.639 E15.63437
G1 X130.854 Y89.639 E15.69748
G1 X130.854 Y105.492 E17.13899
G1 X130.159 Y105.492 E17.20219
G1 X130.159 Y89.639 E18.6437
G1 X129.465 Y89.639 E18.70681
G1 X129.437 Y105.492 E20.14832
G1 X129.437 Y95.173 E21.08662
G1 X128.771 Y94.507 E21.17226
G1 X128.771 Y89.639 E21.61491
G1 X128.077 Y89.639 E21.67802
G1 X128.077 Y94.507 E22.12067
G1 X127.382 Y94.507 E22.18387
G1 X127.382 Y89.639 E22.62652
G1 X126.688 Y89.639 E22.68963
G1 X126.688 Y94.507 E23.13228
G1 X125.994 Y94.507 E23.19539
G1 X125.994 Y89.639 E23.63804
G1 X125.299 Y89.639 E23.70124
G1 X125.299 Y94.507 E24.14389
G1 X124.605 Y94.507 E24.207
G1 X124.605 Y89.639 E24.64965
G1 X123.911 Y89.639 E24.71276
G1 X123.911 Y94.507 E25.15541
G1 X123.216 Y94.507 E25.21861
G1 X123.216 Y89.639 E25.66126
G1 X122.522 Y89.639 E25.72437
G1 X122.522 Y94.507 E26.16702
G1 X121.828 Y94.507 E26.23013
G1 X121.828 Y89.639 E26.67278
G1 X121.133 Y89.639 E26.73598
G1 X121.133 Y94.507 E27.17863
G1 X120.439 Y94.507 E27.24174
G1 X120.439 Y89.639 E27.68439
G1 X119.745 Y89.639 E27.7475
G1 X119.745 Y94.507 E28.19015
G1 X119.05 Y94.507 E28.25335
G1 X119.05 Y89.357 E28.72164
G1 E26.72164 F2400
G92 E0
G1 X119.05 Y89.357 F7800
G1 X134.897 Y162.766
G1 E2 F2400
G1 F1800
G1 X117.919 Y162.766 E3.5438
G1 X117.919 Y156.773 E4.08874
G1 X128.538 Y156.773 E5.05432
G1 X128.875 Y156.436 E5.09766
G1 X128.875 Y145.789 E6.06579
G1 X134.897 Y145.789 E6.61337
G1 X134.897 Y162.673 E8.14863
G1 X134.897 Y162.673 F7800
G1 X134.325 Y162.485
G1 F1800
G1 X134.325 Y146.351 E9.61569
G1 X133.631 Y146.351 E9.6788
G1 X133.631 Y162.204 E11.12031
G1 X132.937 Y162.204 E11.18342
G1 X132.937 Y146.351 E12.62493
G1 X132.242 Y146.351 E12.68813
G1 X132.242 Y162.204 E14.12964
G1 X131.548 Y162.204 E14.19275
G1 X131.548 Y146.351 E15.63426
G1 X130.854 Y146.351 E15.69737
G1 X130.854 Y162.204 E17.13888
G1 X130.159 Y162.204 E17.20208
G1 X130.159 Y146.351 E18.64359
G1 X129.465 Y146.351 E18.7067
G1 X129.465 Y162.204 E20.14821
G1 X128.771 Y162.204 E20.21132
G1 X128.771 Y157.336 E20.65397
G1 X128.077 Y157.336 E20.71708
G1 X128.077 Y162.204 E21.15973
G1 X127.382 Y162.204 E21.22293
G1 X127.382 Y157.336 E21.66558
G1 X126.688 Y157.336 E21.72869
G1 X126.688 Y162.204 E22.17134
G1 X125.994 Y162.204 E22.23445
G1 X125.994 Y157.336 E22.6771
G1 X125.299 Y157.336 E22.7403
G1 X125.299 Y162.204 E23.18295
G1 X124.605 Y162.204 E23.24606
G1 X124.605 Y157.336 E23.68871
G1 X123.911 Y157.336 E23.75182
G1 X123.911 Y162.204 E24.19447
G1 X123.216 Y162.204 E24.25767
G1 X123.216 Y157.336 E24.70032
G1 X122.522 Y157.336 E24.76343
G1 X122.522 Y162.204 E25.20608
G1 X121.828 Y162.204 E25.26919
G1 X121.828 Y157.336 E25.71184
G1 X121.133 Y157.336 E25.77504
G1 X121.133 Y162.204 E26.21769
G1 X120.439 Y162.204 E26.2808
G1 X120.439 Y157.336 E26.72345
G1 X119.745 Y157.336 E26.78656
G1 X119.745 Y162.204 E27.22921
G1 X119.05 Y162.204 E27.29241
G1 X119.05 Y157.054 E27.7607
G1 E25.7607 F2400
G92 E0
G1 X119.05 Y157.054 F7800
G1 X126.7 Y154.598
G1 E2 F2400
;TYPE:Perimeter
;WIDTH:0.7
G1 F1800
G1 X18.361 Y154.598 E11.85121
G1 X18.361 Y97.244 E17.06638
G1 X126.7 Y97.244 E26.91759
G1 X126.7 Y99.498 E27.12255
G1 X126.7 Y154.538 E32.12731
G1 X126.7 Y154.538 F7800
G1 X127.325 Y155.223
G1 F1800
G1 X17.737 Y155.223 E42.09209
G1 X17.737 Y96.619 E47.42092
G1 X127.325 Y96.619 E57.3857
G1 X127.325 Y99.498 E57.64749
G1 X127.325 Y155.163 E62.70908
G1 X127.325 Y155.163 F7800
G1 X127.95 Y155.848
;TYPE:External perimeter
G1 F1800
G1 X17.112 Y155.848 E72.78753
G1 X17.112 Y95.995 E78.22993
G1 X127.95 Y95.995 E88.30838
G1 X127.95 Y99.498 E88.62691
G1 X127.95 Y155.788 E93.74533
G1 X127.554 Y155.847 F7800
G1 E91.74533 F2400
G92 E0
G1 X116.327 Y101.734 F7800
G1 E2 F2400
;TYPE:Perimeter
G1 F1800
G1 X116.342 Y101.39 E2.03131
G1 X116.498 Y100.747 E2.09147
G1 X116.799 Y100.121 E2.15463
G1 X117.156 Y99.649 E2.20844
G1 X117.65 Y99.214 E2.26829
G1 X118.161 Y98.913 E2.32222
G1 X118.687 Y98.722 E2.3731
G1 X119.337 Y98.621 E2.43291
G1 X119.93 Y98.642 E2.48687
G1 X120.575 Y98.798 E2.54721
G1 X121.201 Y99.1 E2.61041
G1 X121.673 Y99.457 E2.66422
G1 X122.108 Y99.95 E2.724
G1 X122.409 Y100.462 E2.77801
G1 X122.6 Y100.987 E2.82881
G1 X122.702 Y101.641 E2.889
G1 X122.663 Y102.332 E2.95193
G1 X122.514 Y102.906 E3.00585
G1 X122.278 Y103.413 E3.0567
G1 X121.888 Y103.947 E3.11683
G1 X121.454 Y104.35 E3.17068
G1 X120.889 Y104.694 E3.23083
G1 X120.335 Y104.9 E3.28457
G1 X119.681 Y105.002 E3.34476
G1 X118.99 Y104.964 E3.40769
G1 X118.416 Y104.815 E3.46161
G1 X117.909 Y104.578 E3.5125
G1 X117.684 Y104.435 E3.53674
G1 X117.286 Y104.11 E3.58346
G1 X116.913 Y103.672 E3.63577
G1 X116.613 Y103.16 E3.68973
G1 X116.399 Y102.537 E3.74963
G1 X116.317 Y101.949 E3.80361
G1 X116.324 Y101.794 E3.81772
G1 X116.324 Y101.794 F7800
G1 X116.944 Y101.812
G1 F1800
G1 X116.939 Y101.73 E3.82519
G1 X116.998 Y101.264 E3.8679
G1 X117.176 Y100.734 E3.91874
G1 X117.451 Y100.27 E3.96778
G1 X117.766 Y99.922 E4.01046
G1 X118.195 Y99.601 E4.05918
G1 X118.602 Y99.404 E4.1003
G1 X119.054 Y99.281 E4.14289
G1 X119.589 Y99.24 E4.19168
G1 X120.058 Y99.299 E4.23466
G1 X120.588 Y99.476 E4.28547
G1 X121.052 Y99.752 E4.33456
G1 X121.4 Y100.066 E4.37718
G1 X121.722 Y100.495 E4.42595
G1 X121.918 Y100.903 E4.46711
G1 X122.042 Y101.355 E4.50973
G1 X122.08 Y101.913 E4.56059
G1 X122.005 Y102.444 E4.60935
G1 X121.855 Y102.871 E4.6505
G1 X121.623 Y103.278 E4.6931
G1 X121.272 Y103.687 E4.74211
G1 X120.901 Y103.975 E4.78482
G1 X120.42 Y104.218 E4.83382
G1 X119.967 Y104.342 E4.87653
G1 X119.409 Y104.381 E4.92739
G1 X118.878 Y104.305 E4.97617
G1 X118.451 Y104.156 E5.01729
G1 X118.063 Y103.938 E5.05776
G1 X117.656 Y103.597 E5.10604
G1 X117.34 Y103.197 E5.15239
G1 X117.098 Y102.701 E5.20257
G1 X116.965 Y102.181 E5.25138
G1 X116.947 Y101.872 E5.27952
G1 X116.947 Y101.872 F7800
G1 X117.584 Y101.574
;TYPE:External perimeter
G1 F1800
G1 X117.598 Y101.439 E5.29186
G1 X117.724 Y101.034 E5.33043
G1 X117.93 Y100.671 E5.36838
G1 X118.157 Y100.409 E5.3999
G1 X118.484 Y100.155 E5.43755
G1 X118.79 Y100 E5.46874
G1 X119.123 Y99.902 E5.5003
G1 X119.535 Y99.862 E5.53794
G1 X119.883 Y99.899 E5.56976
G1 X120.288 Y100.024 E5.6083
G1 X120.651 Y100.23 E5.64625
G1 X120.913 Y100.458 E5.67783
G1 X121.168 Y100.784 E5.71546
G1 X121.322 Y101.091 E5.74669
G1 X121.42 Y101.423 E5.77817
G1 X121.459 Y101.845 E5.81671
G1 X121.408 Y102.257 E5.85446
G1 X121.301 Y102.582 E5.88557
G1 X121.136 Y102.887 E5.9171
G1 X120.87 Y103.208 E5.95501
G1 X120.6 Y103.427 E5.98662
G1 X120.232 Y103.622 E6.02449
G1 X119.899 Y103.721 E6.05608
G1 X119.477 Y103.76 E6.09462
G1 X119.066 Y103.709 E6.13228
G1 X118.74 Y103.602 E6.16348
G1 X118.441 Y103.441 E6.19436
G1 X118.109 Y103.165 E6.23362
G1 X117.854 Y102.838 E6.27133
G1 X117.698 Y102.525 E6.30313
G1 X117.587 Y102.126 E6.34079
G1 X117.562 Y101.784 E6.37197
G1 X117.578 Y101.633 E6.38578
G1 X117.664 Y101.243 F7800
G1 E4.38578 F2400
G92 E0
G1 X90.783 Y109.574 F7800
G1 E2 F2400
;TYPE:Perimeter
G1 F1800
G1 X90.439 Y109.774 E2.03618
G1 X89.783 Y110.004 E2.09939
G1 X89.346 Y110.066 E2.13952
G1 X88.776 Y110.066 E2.19135
G1 X88.339 Y110.004 E2.23148
G1 X87.815 Y109.839 E2.28143
G1 X87.37 Y109.603 E2.32723
G1 X86.898 Y109.246 E2.38104
G1 X86.463 Y108.752 E2.44089
G1 X86.163 Y108.241 E2.49477
G1 X85.972 Y107.715 E2.54565
G1 X85.87 Y107.061 E2.60584
G1 X85.932 Y106.222 E2.68234
G1 X86.109 Y105.655 E2.73635
G1 X86.349 Y105.201 E2.78305
G1 X86.706 Y104.729 E2.83686
G1 X87.2 Y104.294 E2.89671
G1 X87.711 Y103.993 E2.95064
G1 X88.237 Y103.802 E3.00152
G1 X88.887 Y103.701 E3.06133
G1 X89.48 Y103.722 E3.11529
G1 X90.125 Y103.878 E3.17563
G1 X90.748 Y104.178 E3.2385
G1 X91.222 Y104.536 E3.29251
G1 X91.599 Y104.948 E3.34329
G1 X91.944 Y105.513 E3.40349
G1 X92.173 Y106.169 E3.46667
G1 X92.255 Y106.756 E3.52056
G1 X92.213 Y107.416 E3.58069
G1 X92.103 Y107.843 E3.62078
G1 X91.885 Y108.369 E3.67255
G1 X91.66 Y108.75 E3.71278
G1 X91.319 Y109.158 E3.76113
G1 X90.931 Y109.488 E3.80745
G1 X90.835 Y109.543 E3.81751
G1 X90.835 Y109.543 F7800
G1 X90.523 Y108.998
G1 F1800
G1 X90.451 Y109.055 E3.82586
G1 X90.002 Y109.288 E3.87186
G1 X89.52 Y109.425 E3.91742
G1 X88.776 Y109.441 E3.98509
G1 X88.514 Y109.404 E4.00915
G1 X88.021 Y109.246 E4.05622
G1 X87.563 Y108.986 E4.10411
G1 X87.185 Y108.652 E4.14998
G1 X86.865 Y108.235 E4.19778
G1 X86.654 Y107.8 E4.24174
G1 X86.53 Y107.347 E4.28445
G1 X86.491 Y106.789 E4.33531
G1 X86.544 Y106.348 E4.3757
G1 X86.726 Y105.813 E4.42709
G1 X87.001 Y105.35 E4.47606
G1 X87.316 Y105.002 E4.51874
G1 X87.745 Y104.681 E4.56746
G1 X88.152 Y104.484 E4.60858
G1 X88.604 Y104.361 E4.65117
G1 X89.139 Y104.32 E4.69996
G1 X89.608 Y104.379 E4.74294
G1 X90.138 Y104.556 E4.79375
G1 X90.6 Y104.83 E4.84259
G1 X90.937 Y105.131 E4.88368
G1 X91.224 Y105.501 E4.92626
G1 X91.474 Y106.002 E4.97717
G1 X91.607 Y106.525 E5.02624
G1 X91.63 Y106.994 E5.06894
G1 X91.557 Y107.518 E5.11705
G1 X91.308 Y108.13 E5.17713
G1 X91.173 Y108.358 E5.20122
G1 X90.842 Y108.749 E5.2478
G1 X90.571 Y108.961 E5.27909
G1 X90.571 Y108.961 F7800
G1 X90.132 Y108.517
;TYPE:External perimeter
G1 F1800
G1 X89.775 Y108.704 E5.31574
G1 X89.346 Y108.817 E5.35608
G1 X88.776 Y108.817 E5.40791
G1 X88.284 Y108.678 E5.4544
G1 X87.921 Y108.472 E5.49235
G1 X87.659 Y108.245 E5.52387
G1 X87.404 Y107.918 E5.56158
G1 X87.25 Y107.612 E5.59273
G1 X87.151 Y107.279 E5.62432
G1 X87.112 Y106.857 E5.66286
G1 X87.156 Y106.474 E5.69792
G1 X87.274 Y106.114 E5.73237
G1 X87.48 Y105.751 E5.77032
G1 X87.707 Y105.489 E5.80184
G1 X88.034 Y105.235 E5.83949
G1 X88.34 Y105.08 E5.87068
G1 X88.673 Y104.982 E5.90224
G1 X89.085 Y104.942 E5.93988
G1 X89.433 Y104.979 E5.9717
